X: 703
T: Ey Enbiyâlar Serveri
C: ?
O: Turkey
F: http://compmusic.upf.edu/node/140
N: ussak--ilahi--sofyan--ey_enbiyalar--
N: makam= ussak
N: form= ilahi
N: usul= sofyan = 4/4
M: 4/4
L: 1/16
K: C _2/4B   
Q: 1/4=84
%%MIDI tuningsystem comma53
G2A2 G2^3/4F2 G4 A4  | A8 A2B2 G4  | \
w:  Ey  *  *  *  en bi  |  yâ  | 
A2B2 c3B B3A A2B2  | A2G2 ^3/4F2AG G8  | 
w:  lar  *  *  *  ser *  ve  |  ri   | 
G2A4G2 A4 B4  | c2d2 c2B2 d2cd e2dc  | \
w:  ey  *  *  as fi  |  yâ  | 
c2Bc d2cB c2BA A4  | 
w:  *  lar  *  *  *  *  reh *  *  be  | 
A2GA G2A2 A6z2  | d2e2 d2c2 d4 e4  | \
w:  ri    |  Ey  *  *  *  in sü   | 
e8 e2^3/4f2 d4  | e2^3/4f2 g2a2 g2fe e4  | 
w:  can   |  pey *  *  *  gam *  *  be  | 
e2de d2e2 fefg e2d2  | d6c2 e3d c2B2  | \
w:  ri   |  eh *  len  *  ve   | 
A6G2 d2cd e2dc  | 
w:  seh  | 
c2BA d2cB c2BA A4  | A2GA G2A2 A6z2  | \
w:  *  len  *  *  *  *  mer *  *  ha  |  ba    | 
G2A2 G2^3/4F2 G4 A4  | 
w:  Ya  *  *  *  mer ha  | 
A8 A2B2 G4  | A2B2 c3B B3A A2=B2  | A2G2 ^3/4F2AG G6z2  | \
w:  ba   |  dost  *  *  *  mer *  ha  |  ba    | 
G2A4G2 A4 B4  | 
w:  Şehr_ *  *  i  ra  | 
c2d2 c2B2 d2cB e2dc  | c2Bc d2cB c2BA A4  | \
w:  ma  |  *  zan  *  *  *  *  mer *  *  ha  | 
A2GA G2A2 A6z2  | 
w:  ba    | 
G2A2 G2^3/4F2 G4 A4  | A8 A2B2 G4  | \
w:  Ey  *  *  *  en bi  |  yâ  | 
A2B2 c3B B3A A2B2  | A2G2 ^3/4F2AG G8  | 
w:  lar  *  *  *  ser *  ve  |  ri   | 
G2A4G2 A4 B4  | c2d2 c2B2 d2cd e2dc  | \
w:  ey  *  *  as fi  |  yâ  | 
c2Bc d2cB c2BA A4  | 
w:  *  lar  *  *  *  *  reh *  *  be  | 
A2GA G2A2 A6z2  | d2e2 d2c2 d4 e4  | \
w:  ri    |  Ey  *  *  *  in sü   | 
e8 e2^3/4f2 d4  | e2^3/4f2 g2a2 g2fe e4  | 
w:  can   |  pey *  *  *  gam *  *  be  | 
e2de d2e2 fefg e2d2  | d6c2 e3d c2B2  | \
w:  ri   |  eh *  len  *  ve   | 
A6G2 d2cd e2dc  | 
w:  seh  | 
c2BA d2cB c2BA A4  | A2GA G2A2 A6z2  | \
w:  *  len  *  *  *  *  mer *  *  ha  |  ba    | 
G2A2 G2^3/4F2 G4 A4  | 
w:  Ya  *  *  *  mer ha  | 
A8 A2B2 G4  | A2B2 c3B B3A A2=B2  | A2G2 ^3/4F2AG G6z2  | \
w:  ba   |  dost  *  *  *  mer *  ha  |  ba    | 
G2A4G2 A4 B4  | 
w:  Şehr_ *  *  i  ra  | 
c2d2 c2B2 d2cB e2dc  | c2Bc d2cB c2BA A4  | \
w:  ma  |  *  zan  *  *  *  *  mer *  *  ha  | 
A2GA G2A2 A6z2  | 
w:  ba    | 
|


